X:1
T:Virgo carens
T:Andreas de Silva
T:Source : Liber Motettorum IV---Paris---P.Attaignant---1534. Editor : André Vierendeels (18/09/17).
T:Virgo carens
T:©
T:©
T:©
T:©
T:©
C:Andreas de Silva
Z:©
%%score [ 1 2 3 4 ]
L:1/8
Q:1/4=120
M:2/2
K:F
V:1 treble nm="Soprano 1" snm="S 1"
V:2 treble nm="Soprano 2" snm="S 2"
V:3 treble nm="Soprano 3" snm="S 3"
V:4 treble-8 nm="Tenor" snm="T"
V:1
 z8 | z8 | z8 | F4 c4- | c4 c4 | B4 G4 | A6 G2 | F4 E4 | z2 E2 F2 F2 | G6 E2 | A4 A4 | %11
w: |||Vir- go|_ ca-|rens cri-|mi- *|ni- bus|te pre- cor|in au-|ri- li-|
 G3 F G2 A2- | AG F2 E2 C2- | C2 c2 A2 B2 | G4 F4 | z2 c4 c2 | c2 c2 A2 d2- | d2 d2 c4- | c4 A4- | %19
w: |* * * * o,|_ in au- ri-|li- o|ut as-|si- du- is pre-|* ci- bus,|_ _|
 A8- | A4 z4 | z2 A2 A2 G2 | c6 B2 | A3 B c2 d2 | c3 B c2 d2- | dc c4 B2 | c4 z2 c2 | c2 c2 A2 c2 | %28
w: ||fis co- ram|fi- *|||* * * li-|o, et|pro cun- ctis fi-|
 c2 c2 c4 | z2 c2 c2 B2 | c6 B2 | A4 G4 | F4 z2 c2 | c2 B2 c4- | c2 B2 A4 | G4 F4 | z2 c2 c2 B2 | %37
w: de- li- bus,|fi- at tu-|a pe-|ti- ti-|o, et|pri cun- ctis|_ fi- de-|li- bus,|fi- at tu-|
 c6 B2 | A4 G4 | F4 z2 A2- | A2 A2 d4- | d4 c2 A2 | B2 c2 d4 | c4 z2 c2 | c2 c2 B3 A | Bc d4 c2 | %46
w: a pe-|ti- ti-|o cum|_ san- cto-|* rum ag-|mi- * ni-|bus, lo-|cet e- os _|_ _ _ cum|
 c2 B2 c4- | c4 z2 c2 | c2 c2 B4- | B2 G2 A2 B2 | G8 | z4 z2 c2 | c2 d2 G4 | c4 B2 B2 | A4 z4 | %55
w: gau- di- o,|_ lo-|cet e- os|_ cum gau- di-|o,|lo-|cet e- os|cum gau- di-|o,|
 z8 | z2 G2 A2 B2 | c2 C2 DCDE | FEFG AB c2- | cBBA/B/ c4- | c8 |] %61
w: |lo- cet e-|os cum gau- * * *|* * * * * * di-|* * * * * o.|_|
V:2
 z8 | z8 | z8 | z8 | z8 | F4 c4- | c4 c4 | B4 G4 | A6 B2 | c8- | c8 | z4 z2 A2 | A2 B2 c4- | %13
w: |||||Vir- go|_ ca-|rens cri-|mi- ni-|bus|_|te|pre- cor in|
 c2 A2 d2 d2 | c4 z2 A2- | A2 A2 A2 A2 | G4 F4- | F2 E2 E4- | E2 DC D4- | D4 A,4 | z2 D2 D2 C2 | %21
w: _ au- ri- li-|o ut|_ as- si- du-|is pre-|* ci- bus,|_ _ _ _||fis co- ram|
 F6 E2 | F2 F2 C2 G2 | G2 E2 C2 G2 | EDEF G2 D2 | E2 F2 G4 | z2 E4 E2- | E2 E2 F2 E2 | E2 F2 E4 | %29
w: tu- o|fi- li- o, fis|co- ram tu- o|fi- * * * * *|* li- o,|et pro|_ cun- ctis fi-|de- li- bus,|
 z2 E2 F2 G2 | A6 G2 | F4 E4 | F4 z2 E2 | F2 F2 GFGE | A2 G3 F F2- | F2 E2 F4 | z2 E2 F2 F2 | %37
w: fi- at tu-|a pe-|ti- ti-|o, et|pro cun- ctis _ _ _|_ fi- * de-|* li- bus,|fi- at tu-|
 GFGE A2 G2- | GF F4 E2 | F2 c4 c2 | d2 A4 GF | G3 F A4 | F2 G2 A2 B2 | G8 | z8 | z4 z2 G2 | %46
w: a _ _ _ _ pe-|* * ti- ti-|o, cum san-|cto- rum a- *|mi- * *|* * * ni-|bus,||lo-|
 G2 G2 E4- | E2 D2 E4 | C4 D4 | z8 | z2 c2 c2 c2 | A6 G2 | A2 B2 c4 | z2 C2 D2 E2 | F6 E2 | %55
w: cet e- os|_ cum gau-|di- o,||lo- cet e-|os cum|gau- di- o,|lo- cet e-|os cum|
 F2 G2 A4 | z4 z2 F2 | G2 A2 B4 | A4 F2 G2- | GF F4 E2 | F8 |] %61
w: gau- di- o,|lo-|cet e- os|cum gau- *|* * * di-|o.|
V:3
 z8 | F4 c4- | c4 c4 | B4 G4 | A6 G2 | F4 E3 D | E2 F3 E C2 | D4 C2 c2 | c2 c2 A2 GF | E4 G4 | %10
w: |Vir- go|_ ca-|rens cri-|mi- *|||ni- bus, te|pre- cor in au- *|ri- *|
 F4 E4- | E4 z2 E2 | F2 F2 G3 F | GE A3 G F2- | F2 E2 F4- | F4 z4 | z4 z2 A2- | A2 A2 A2 A2 | %18
w: li- o|_ ut|te pre- cor _|_ _ in au- ri-|* li- o|_|ut|_ as- si- du-|
 G4 F4- | F2 F2 E4 | z8 | z8 | z2 A2 A2 G2 | c6 B2 | A3 G/F/ E2 F2 | C4 D4 | C2 G4 G2- | %27
w: is pre-|* ci- bus,|||fis co- ram|tu- o|fi- * * * *|li- *|o, et pro|
 G2 G2 F2 G2 | A2 A2 G4- | G4 z4 | z8 | z2 c2 c2 c2 | B2 A4 G2 | F4 E4 | z4 z2 c2 | c2 c2 B2 A2- | %36
w: _ cun- ctis fi-|de- li- bus,|_||fi- at tu-|a pe- ti-|ti- o,|fi-|at tu- a pe-|
 A2 G2 F4 | E8 | z2 c4 c2 | A8 | F6 F/E/D/C/ | D4 E2 F2- | F2 E2 F3 G | E4 z2 E2 | E2 F2 G4- | %45
w: * ti- ti-|o,|cum san-|cto-|rum _ _ _ _|ag- mi- *|* * * ni-|bus, lo-|cet e- os|
 G2 F2 E4 | D4 C4 | z4 z2 E2 | E2 F2 G4- | G2 E2 F2 G2 | E8 | z8 | z4 z2 E2 | E2 F2 G4 | %54
w: _ cum gau-|di- o,|lo-|cet e- os|_ cum gau- di-|o,||lo-|cet e- os|
 D2 A3 BcA | B2 c3 B c/B/A/G/ | A2 c2 c2 d2 | G2 E2 G4 | F3 E D2 C2 | F4 G4 | F8 |] %61
w: cum gau- * * *|* * * di- * * *|o, lo- cet e-|os cum gau-||di- *|o.|
V:4
 c4 f4- | f4 f4 | e6 c2 | d4 e4 | f6 e2 | d4 c4 | A4 A4 | B4 c4- | c2 A2 d2 d2 | c8 | z2 A2 A2 A2 | %11
w: Vir- go|_ ca-|rens cri-|mi- *|* ni-|bus, _|te pre-|cor in|_ au- ri- li-|o,|te pr- cor|
 c6 A2 | d2 d2 c3 d | ec f4 B2 | c4 z2 f2- | f2 f2 f2 f2 | c4 d4- | d2 A2 A4 | z8 | z2 d2 d2 c2 | %20
w: in au-|ri- * * *|* * * li-|o ut|_ as- si- du-|is pre-|* ci- bus,||fis co- ram|
"^-natural" f6 e2 | d2 d2 c4 | z8 | z2 A2 A2 G2 | c6 B2 | A2 A2 G4 | z2 c4 c2- | c2 c2 d2 c2 | %28
w: tu- o|fi- li- o,||fis co- ram|tu- o|fi- li- o,|et pro|_ cun- ctis fi-|
 A2 A2 c4- | c4 z4 | z8 | z2 A2 c2 c2 | d3 e f2 c2 | d2 d2 c4 | z4 z2 A2 | c2 c2 d3 e | %36
w: de- li- bus,|_||fi- at tu-|a _ _ pe-|ti- ti- o,|fi-|at tu- a _|
 f2 c2 d2 d2 | c8- | c8 | z2 f4 f2 | d4 B4- | B4 A2 d2- | dc c4 B2 | c8 | z8 | z4 z2 G2 | %46
w: _ pe- ti- ti-|o,|_|cum san-|cto- rum|_ ag- mi-|* * * ni-|bus,||lo-|
 G2 G2 c4- | c2 B2 c4 | A4 G4 | z8 | z2 c2 c2 c2 | f6 e2 | f2 d2 c3 B | A4 G4 | z4 z2 c2 | %55
w: cet e- os|_ cum gau-|di- o,||lo- cet e-|os cum|gau- * * di-|o, _|lo-|
 d2 e2 f4- | f2 e2 f2 d2 | c3 B/A/ GABc | de f4 e2 | d4 c4 | F8 |] %61
w: cet e- os|_ cum gau- *||di- * o, cum|gau- di-|o.|

